X:50
T:Cornish Quick March.2voices RH.050
R:March
S:Rev.R.Harrison’s MS,c1815,Cumbria
O:England
A:Temple Sowerby,Cumbria
Z:vmp.Simon Wilson. Review PJH, 2008.
M:2/4
L:1/8
Q:1/4=120
K:G
[V:1]|:B/c/|dGGB|B2AG/A/|BEEA|G/F/E/F/ DB/c/|
[V:2]|:z|BGBG|G2D2|GBBD|G2Dz|
%
[V:1] dddg|fe e/d/c/B/|ceAd|c/B/A/B/ G:|
[V:2] BBBB|BA A/B/A/G/|AcAc|A G G:|
%
[V:1]|:g/f/|gb ef/g/|fa de/f/|eg ce|e2dc/B/|
[V:2]|:e/d/|Bg cd|df Bc|cB Ac|c2BG|
%
[V:1] ce AB/c/|Bd Gg/f/|edcB|(B2″ DC”A):|
[V:2] Ac AB|BG Ge/d/|cBAG|(G2″ DC”D):|

